assets/img/web-component-card.svg

<svg width="285" height="170" viewBox="0 0 285 170" fill="none" xmlns="http://www.w3.org/2000/svg">
<path d="M0 8C0 3.58172 3.58172 0 8 0H277C281.418 0 285 3.58172 285 8V170H0V8Z" fill="#F7FAFD"/>
<rect x="111" y="123.32" width="54" height="31.32" rx="15.66" transform="rotate(180 111 123.32)" fill="#BEC0C1"/>
<ellipse cx="73.7402" cy="107.66" rx="13.5" ry="13.5" transform="rotate(180 73.7402 107.66)" fill="white"/>
<path d="M73.7402 109.097L68.7098 114.128C68.5216 114.316 68.2821 114.41 67.9912 114.41C67.7003 114.41 67.4608 114.316 67.2726 114.128C67.0843 113.939 66.9902 113.7 66.9902 113.409C66.9902 113.118 67.0843 112.879 67.2726 112.69L72.303 107.66L67.2726 102.629C67.0843 102.441 66.9902 102.202 66.9902 101.911C66.9902 101.62 67.0843 101.38 67.2726 101.192C67.4608 101.004 67.7003 100.91 67.9912 100.91C68.2821 100.91 68.5216 101.004 68.7098 101.192L73.7402 106.223L78.7707 101.192C78.9589 101.004 79.1984 100.91 79.4893 100.91C79.7802 100.91 80.0197 101.004 80.2079 101.192C80.3961 101.38 80.4902 101.62 80.4902 101.911C80.4902 102.202 80.3961 102.441 80.2079 102.629L75.1775 107.66L80.2079 112.69C80.3961 112.879 80.4902 113.118 80.4902 113.409C80.4902 113.7 80.3961 113.939 80.2079 114.128C80.0197 114.316 79.7802 114.41 79.4893 114.41C79.1984 114.41 78.9589 114.316 78.7707 114.128L73.7402 109.097Z" fill="#BEC0C1" stroke="#BEC0C1"/>
<rect x="57" y="46" width="53.4483" height="31" rx="15.5" fill="#124A73"/>
<ellipse cx="94.948" cy="61.5" rx="13.3621" ry="13.3621" fill="white"/>
<path d="M92.7995 64.7472L89.5006 61.4317C89.2198 61.149 88.8608 61.0076 88.4265 61.0076C87.9922 61.0076 87.6332 61.149 87.3524 61.4317C87.0716 61.7144 86.9305 62.0743 86.9305 62.5112C86.9305 62.9481 87.0716 63.308 87.3524 63.5907L91.7255 67.9857C92.0323 68.2941 92.3899 68.4483 92.7995 68.4483C93.2093 68.4483 93.5667 68.2941 93.8736 67.9857L102.543 59.2727C102.824 58.9901 102.965 58.6302 102.965 58.1933C102.965 57.7563 102.824 57.3965 102.543 57.1138C102.262 56.8311 101.903 56.6897 101.469 56.6897C101.035 56.6897 100.676 56.8311 100.395 57.1138L92.7995 64.7472Z" fill="#124A73"/>
<path d="M124.934 62C124.934 59.7909 126.724 58 128.934 58H233.934C236.143 58 237.934 59.7909 237.934 62C237.934 64.2091 236.143 66 233.934 66H128.934C126.724 66 124.934 64.2091 124.934 62Z" fill="#457AA5"/>
<rect x="125" y="104" width="77" height="8" rx="4" fill="#BEC0C1"/>
</svg>

<svg xmlns="http://www.w3.org/2000/svg" width="285" height="170" fill="none" viewBox="0 0 285 170"><path fill="#f7fafd" d="M0 8a8 8 0 0 1 8-8h269a8 8 0 0 1 8 8v162H0z"/><rect width="54" height="31.32" x="111" y="123.32" fill="#bec0c1" rx="15.66" transform="rotate(180 111 123.32)"/><circle cx="73.74" cy="107.66" r="13.5" fill="#fff" transform="rotate(180 73.74 107.66)"/><path fill="#bec0c1" stroke="#bec0c1" d="m73.74 109.097-5.03 5.031a.97.97 0 0 1-.719.282.97.97 0 0 1-.718-.282.98.98 0 0 1-.283-.719q0-.436.283-.719l5.03-5.03-5.03-5.031a.97.97 0 0 1-.283-.718q0-.437.283-.719a.97.97 0 0 1 .718-.282q.436 0 .719.282l5.03 5.031 5.03-5.031a.97.97 0 0 1 .72-.282q.436 0 .718.282a.97.97 0 0 1 .282.719q0 .436-.282.718l-5.03 5.031 5.03 5.03a.98.98 0 0 1 .282.719q0 .436-.282.719a.97.97 0 0 1-.719.282.97.97 0 0 1-.718-.282z"/><rect width="53.448" height="31" x="57" y="46" fill="#124a73" rx="15.5"/><circle cx="94.948" cy="61.5" r="13.362" fill="#fff"/><path fill="#124a73" d="m92.8 64.747-3.3-3.315q-.422-.424-1.073-.424-.653 0-1.075.424-.421.423-.422 1.08.001.654.422 1.079l4.373 4.395q.46.462 1.075.462.614 0 1.074-.462l8.669-8.713q.422-.425.422-1.08t-.422-1.08q-.422-.423-1.074-.423t-1.074.424z"/><path fill="#457aa5" d="M124.934 62a4 4 0 0 1 4-4h105a4 4 0 0 1 0 8h-105a4 4 0 0 1-4-4"/><rect width="77" height="8" x="125" y="104" fill="#bec0c1" rx="4"/></svg>
